X: 31815
T: Patsy Hanly's
R: reel
M: 4/4
K: Gmajor
|:ge|edBA G2 GB|A[Dd] [F/f/][E/e/][Dd] A[Dd] [F/f/][E/e/][Dd]|d2 cA GA B/c/d|e2 af g2:|
a/g/f|g2 bg gdbg|a/b/a fd ad f/e/d|dggf g2 bg|afdf a2 c'/b/a|
g2 bg g2 b/a/g|fada fadB|c2 cA B/c/B Bc|d2 f/e/d g2||

